src/assets/svg/spot.svg

<svg height="76" viewBox="0 0 91 76" width="91" xmlns="http://www.w3.org/2000/svg"><g fill="none" fill-rule="evenodd" transform="matrix(.20791169 -.9781476 .9781476 .20791169 -4.46896 58.452864)"><path d="m.92136332 22.8375518c3.10756398 35.1088613.90440502 51.6242887 2.34720258 73.653517 16.4823683-12.5223494 56.5831674-13.0843557 72.7136914-16.7680941-9.9508166-26.5512534-19.4813092-46.4198274-26.2537207-67.9791429-10.7088166-21.55931555-51.2653603-10.35933379-48.80717328 11.09372" fill="#1d3c49"/><g fill="#fefefe"><path d="m14.8718698 42.3866324c-.2691963-4.1087852-3.9364051-3.2681372-3.7947229-.3187851.1629346 4.0214145.7296636 20.8863248 1.2751402 28.376593.2597508 3.6247042 4.0214145 3.107564 3.7498569.082648-.2196075-2.4605484-.713134-20.435303-1.2302742-28.1404559"/><path d="m50.4416706 35.0496171c-1.3412586-3.6483179-4.6707915-1.9316013-3.7545796.7060499 1.2208287 3.6058132 6.2033211 18.754007 8.7040128 25.4083499 1.2042991 3.2209098 4.7014893 1.7615826 3.6506793-.9091277-.8666231-2.1771839-6.0805298-18.352574-8.6001125-25.2052721"/><path d="m38.1209823 38.286112c-1.0555328-3.7286046-4.5031342-2.2433023-3.7900002.4439377.9374642 3.6742929 4.743994 19.0940443 6.7251841 25.8947923.9539938 3.2870282 4.5527229 2.0756449 3.7026294-.6588225-.694243-2.2244113-4.6495391-18.6808045-6.6378133-25.6799075"/><path d="m26.6473176 40.8918846c-.5927041-3.9245982-4.1914332-2.8360063-3.8112525-.0094454.4722742 3.8608412 2.3519254 20.0433154 3.4806606 27.2124372.5383926 3.464131 4.2528288 2.6730717 3.7474955-.2172461-.4132399-2.3519254-2.3070593-19.6088232-3.4169036-26.9857457"/></g></g></svg>

<?xml version="1.0" encoding="UTF-8" standalone="no"?>
<svg width="91px" height="76px" viewBox="0 0 91 76" version="1.1" xmlns="http://www.w3.org/2000/svg" xmlns:xlink="http://www.w3.org/1999/xlink">
    <!-- Generator: Sketch 3.6.1 (26313) - http://www.bohemiancoding.com/sketch -->
    <title>spot</title>
    <desc>Created with Sketch.</desc>
    <defs></defs>
    <g id="Page-1" stroke="none" stroke-width="1" fill="none" fill-rule="evenodd">
        <g id="spot">
            <g id="Hue-light-2" transform="translate(50.871843, 31.366972) rotate(-78.000000) translate(-50.871843, -31.366972) translate(12.871843, -17.133028)">
                <path d="M0.921363315,22.8375518 C4.0289273,57.9464131 1.82576834,74.4618405 3.2685659,96.4910688 C19.7509342,83.9687194 59.8517333,83.4067131 75.9822573,79.7229747 C66.0314407,53.1717213 56.5009481,33.3031473 49.7285366,11.7438318 C39.01972,-9.81548375 -1.5368237,1.38449801 0.921363315,22.8375518" id="Fill-1" fill="#1D3C49"></path>
                <path d="M14.8718698,42.3866324 C14.6026735,38.2778472 10.9354647,39.1184952 11.0771469,42.0678473 C11.2400815,46.0892618 11.8068105,62.9541721 12.3522871,70.4444403 C12.6120379,74.0691445 16.3737016,73.5520043 16.102144,70.5270883 C15.8825365,68.0665399 15.38901,50.0917853 14.8718698,42.3866324" id="Fill-7" fill="#FEFEFE"></path>
                <path d="M50.4416706,35.0496171 C49.100412,31.4012992 45.7708791,33.1180158 46.687091,35.755667 C47.9079197,39.3614802 52.8904121,54.509674 55.3911038,61.1640169 C56.5954029,64.3849267 60.0925931,62.9255995 59.0417831,60.2548892 C58.17516,58.0777053 52.9612533,41.9023152 50.4416706,35.0496171" id="Fill-9" fill="#FEFEFE"></path>
                <path d="M38.1209823,38.286112 C37.0654495,34.5575074 33.6178481,36.0428097 34.3309821,38.7300497 C35.2684463,42.4043426 39.0749761,57.824094 41.0561662,64.624842 C42.01016,67.9118702 45.6088891,66.7004869 44.7587956,63.9660195 C44.0645526,61.7416082 40.1092565,45.285215 38.1209823,38.286112" id="Fill-11" fill="#FEFEFE"></path>
                <path d="M26.6473176,40.8918846 C26.0546135,36.9672864 22.4558844,38.0558783 22.8360651,40.8824392 C23.3083393,44.7432804 25.1879905,60.9257546 26.3167257,68.0948764 C26.8551183,71.5590074 30.5695545,70.7679481 30.0642212,67.8776303 C29.6509813,65.5257049 27.7571619,48.2688071 26.6473176,40.8918846" id="Fill-13" fill="#FEFEFE"></path>
            </g>
        </g>
    </g>
</svg>
